icons/entry_fill.svg

<svg width="48" height="48" viewBox="0 0 48 48" fill="none" xmlns="http://www.w3.org/2000/svg">
<path fill-rule="evenodd" clip-rule="evenodd" d="M21 5.38748C21 4.70493 21.6687 4.22296 22.3162 4.4388L35.3162 8.77214C35.7246 8.90825 36 9.29039 36 9.72082V38.2793C36 38.7097 35.7246 39.0919 35.3162 39.228L22.3162 43.5613C21.6687 43.7772 21 43.2952 21 42.6126V39.0001H12V8.00006H21V5.38748ZM27 23.0001C27 24.1046 26.5523 25.0001 26 25.0001C25.4477 25.0001 25 24.1046 25 23.0001C25 21.8955 25.4477 21.0001 26 21.0001C26.5523 21.0001 27 21.8955 27 23.0001ZM21 10.0001H14V37.0001H21V10.0001Z" fill="black"/>
</svg>

<svg
  xmlns="http://www.w3.org/2000/svg"
  width="24"
  height="24"
  viewBox="0 0 24 24"
  fill="none"
  stroke="currentColor"
  stroke-width="2"
  stroke-linecap="round"
  stroke-linejoin="round"
>
  <path
    fill-rule="evenodd"
    d="M21 5.387a1 1 0 0 1 1.316-.948l13 4.333a1 1 0 0 1 .684.949v28.558a1 1 0 0 1-.684.949l-13 4.333A1 1 0 0 1 21 42.613V39h-9V8h9zM27 23c0 1.105-.448 2-1 2s-1-.895-1-2 .448-2 1-2 1 .895 1 2m-6-13h-7v27h7z"
    clip-rule="evenodd"
  />
</svg>
